X:3945
T:Major Coxcomb's Mazurka
O:england
R:Mazurka
M:3/4
C:Andy Hornby
A:Lancaster
N:1987
K:D
DE | A3d cd | A4 FA | GB EF GA | cB AG FG | \
A3d cd | A2F2D2 | EF GA Bc |1d4 :|2 d4 ef |: \
gB Bg Bg | f2df Af | ed cB AG | FG AB A2 | \
g2Bg Bg | f2 df Af | ed cB (3ABc |1 d4 ef :|2 d4 |]
W:Copyright (C) Andy Hornby


